static/img/kroki/5f8903f75908024552bb04af0cb3ff50.svg

<?xml version="1.0" encoding="us-ascii" standalone="no"?><svg xmlns="http://www.w3.org/2000/svg" xmlns:xlink="http://www.w3.org/1999/xlink" contentStyleType="text/css" height="352px" preserveAspectRatio="none" style="width:2068px;height:352px;" version="1.1" viewBox="0 0 2068 352" width="2068px" zoomAndPan="magnify"><defs/><g><!--class azure_compute_virtual_machine--><g id="elem_azure_compute_virtual_machine"><rect codeLine="23" fill="#3D176E" height="39.7891" id="azure_compute_virtual_machine" rx="2.5" ry="2.5" style="stroke:#000D19;stroke-width:0.5;" width="315" x="7" y="106.79"/><ellipse cx="22" cy="126.6845" fill="#ADD1B2" rx="11" ry="11" style="stroke:#181818;stroke-width:1.0;"/><path d="M24.9688,132.3252 Q24.3906,132.622 23.75,132.7627 Q23.1094,132.9189 22.4063,132.9189 Q19.9063,132.9189 18.5781,131.2783 Q17.2656,129.622 17.2656,126.497 Q17.2656,123.372 18.5781,121.7158 Q19.9063,120.0595 22.4063,120.0595 Q23.1094,120.0595 23.75,120.2158 Q24.4063,120.372 24.9688,120.6689 L24.9688,123.3877 Q24.3438,122.8095 23.75,122.5439 Q23.1563,122.2627 22.5313,122.2627 Q21.1875,122.2627 20.5,123.3408 Q19.8125,124.4033 19.8125,126.497 Q19.8125,128.5908 20.5,129.6689 Q21.1875,130.7314 22.5313,130.7314 Q23.1563,130.7314 23.75,130.4658 Q24.3438,130.1845 24.9688,129.6064 L24.9688,132.3252 Z " fill="#000000"/><text fill="#D9B8FF" font-family="Helvetica" font-size="17" lengthAdjust="spacing" textLength="273" x="41" y="132.5698">azure_compute_virtual_machine</text></g><!--class azure_compute_virtual_machine_base--><g id="elem_azure_compute_virtual_machine_base"><rect codeLine="26" fill="#3D176E" height="39.7891" id="azure_compute_virtual_machine_base" rx="2.5" ry="2.5" style="stroke:#000D19;stroke-width:0.5;" width="362" x="357.5" y="106.79"/><ellipse cx="372.5" cy="126.6845" fill="#ADD1B2" rx="11" ry="11" style="stroke:#181818;stroke-width:1.0;"/><path d="M375.4688,132.3252 Q374.8906,132.622 374.25,132.7627 Q373.6094,132.9189 372.9063,132.9189 Q370.4063,132.9189 369.0781,131.2783 Q367.7656,129.622 367.7656,126.497 Q367.7656,123.372 369.0781,121.7158 Q370.4063,120.0595 372.9063,120.0595 Q373.6094,120.0595 374.25,120.2158 Q374.9063,120.372 375.4688,120.6689 L375.4688,123.3877 Q374.8438,122.8095 374.25,122.5439 Q373.6563,122.2627 373.0313,122.2627 Q371.6875,122.2627 371,123.3408 Q370.3125,124.4033 370.3125,126.497 Q370.3125,128.5908 371,129.6689 Q371.6875,130.7314 373.0313,130.7314 Q373.6563,130.7314 374.25,130.4658 Q374.8438,130.1845 375.4688,129.6064 L375.4688,132.3252 Z " fill="#000000"/><text fill="#D9B8FF" font-family="Helvetica" font-size="17" lengthAdjust="spacing" textLength="320" x="391.5" y="132.5698">azure_compute_virtual_machine_base</text></g><!--class azure_compute_virtual_machine_scale_set_instance--><g id="elem_azure_compute_virtual_machine_scale_set_instance"><rect codeLine="29" fill="#3D176E" height="39.7891" id="azure_compute_virtual_machine_scale_set_instance" rx="2.5" ry="2.5" style="stroke:#000D19;stroke-width:0.5;" width="478" x="754.5" y="106.79"/><ellipse cx="769.5" cy="126.6845" fill="#ADD1B2" rx="11" ry="11" style="stroke:#181818;stroke-width:1.0;"/><path d="M772.4688,132.3252 Q771.8906,132.622 771.25,132.7627 Q770.6094,132.9189 769.9063,132.9189 Q767.4063,132.9189 766.0781,131.2783 Q764.7656,129.622 764.7656,126.497 Q764.7656,123.372 766.0781,121.7158 Q767.4063,120.0595 769.9063,120.0595 Q770.6094,120.0595 771.25,120.2158 Q771.9063,120.372 772.4688,120.6689 L772.4688,123.3877 Q771.8438,122.8095 771.25,122.5439 Q770.6563,122.2627 770.0313,122.2627 Q768.6875,122.2627 768,123.3408 Q767.3125,124.4033 767.3125,126.497 Q767.3125,128.5908 768,129.6689 Q768.6875,130.7314 770.0313,130.7314 Q770.6563,130.7314 771.25,130.4658 Q771.8438,130.1845 772.4688,129.6064 L772.4688,132.3252 Z " fill="#000000"/><text fill="#D9B8FF" font-family="Helvetica" font-size="17" lengthAdjust="spacing" textLength="436" x="788.5" y="132.5698">azure_compute_virtual_machine_scale_set_instance</text></g><!--class azure_network_dscp_configuration--><g id="elem_azure_network_dscp_configuration"><rect codeLine="32" fill="#3D176E" height="39.7891" id="azure_network_dscp_configuration" rx="2.5" ry="2.5" style="stroke:#000D19;stroke-width:0.5;" width="332" x="973.5" y="306.37"/><ellipse cx="988.5" cy="326.2645" fill="#ADD1B2" rx="11" ry="11" style="stroke:#181818;stroke-width:1.0;"/><path d="M991.4688,331.9052 Q990.8906,332.202 990.25,332.3427 Q989.6094,332.4989 988.9063,332.4989 Q986.4063,332.4989 985.0781,330.8583 Q983.7656,329.202 983.7656,326.077 Q983.7656,322.952 985.0781,321.2958 Q986.4063,319.6395 988.9063,319.6395 Q989.6094,319.6395 990.25,319.7958 Q990.9063,319.952 991.4688,320.2489 L991.4688,322.9677 Q990.8438,322.3895 990.25,322.1239 Q989.6563,321.8427 989.0313,321.8427 Q987.6875,321.8427 987,322.9208 Q986.3125,323.9833 986.3125,326.077 Q986.3125,328.1708 987,329.2489 Q987.6875,330.3114 989.0313,330.3114 Q989.6563,330.3114 990.25,330.0458 Q990.8438,329.7645 991.4688,329.1864 L991.4688,331.9052 Z " fill="#000000"/><text fill="#D9B8FF" font-family="Helvetica" font-size="17" lengthAdjust="spacing" textLength="290" x="1007.5" y="332.1498">azure_network_dscp_configuration</text></g><!--class azure_network_interface--><g id="elem_azure_network_interface"><rect codeLine="35" fill="#3D176E" height="39.7891" id="azure_network_interface" rx="2.5" ry="2.5" style="stroke:#000D19;stroke-width:0.5;" width="250" x="1014.5" y="206.58"/><ellipse cx="1029.5" cy="226.4745" fill="#ADD1B2" rx="11" ry="11" style="stroke:#181818;stroke-width:1.0;"/><path d="M1032.4688,232.1152 Q1031.8906,232.412 1031.25,232.5527 Q1030.6094,232.7089 1029.9063,232.7089 Q1027.4063,232.7089 1026.0781,231.0683 Q1024.7656,229.412 1024.7656,226.287 Q1024.7656,223.162 1026.0781,221.5058 Q1027.4063,219.8495 1029.9063,219.8495 Q1030.6094,219.8495 1031.25,220.0058 Q1031.9063,220.162 1032.4688,220.4589 L1032.4688,223.1777 Q1031.8438,222.5995 1031.25,222.3339 Q1030.6563,222.0527 1030.0313,222.0527 Q1028.6875,222.0527 1028,223.1308 Q1027.3125,224.1933 1027.3125,226.287 Q1027.3125,228.3808 1028,229.4589 Q1028.6875,230.5214 1030.0313,230.5214 Q1030.6563,230.5214 1031.25,230.2558 Q1031.8438,229.9745 1032.4688,229.3964 L1032.4688,232.1152 Z " fill="#000000"/><text fill="#D9B8FF" font-family="Helvetica" font-size="17" lengthAdjust="spacing" textLength="208" x="1048.5" y="232.3598">azure_network_interface</text></g><!--class azure_network_private_link_service--><g id="elem_azure_network_private_link_service"><rect codeLine="38" fill="#3D176E" height="39.7891" id="azure_network_private_link_service" rx="2.5" ry="2.5" style="stroke:#000D19;stroke-width:0.5;" width="342" x="1338.5" y="106.79"/><ellipse cx="1353.5" cy="126.6845" fill="#ADD1B2" rx="11" ry="11" style="stroke:#181818;stroke-width:1.0;"/><path d="M1356.4688,132.3252 Q1355.8906,132.622 1355.25,132.7627 Q1354.6094,132.9189 1353.9063,132.9189 Q1351.4063,132.9189 1350.0781,131.2783 Q1348.7656,129.622 1348.7656,126.497 Q1348.7656,123.372 1350.0781,121.7158 Q1351.4063,120.0595 1353.9063,120.0595 Q1354.6094,120.0595 1355.25,120.2158 Q1355.9063,120.372 1356.4688,120.6689 L1356.4688,123.3877 Q1355.8438,122.8095 1355.25,122.5439 Q1354.6563,122.2627 1354.0313,122.2627 Q1352.6875,122.2627 1352,123.3408 Q1351.3125,124.4033 1351.3125,126.497 Q1351.3125,128.5908 1352,129.6689 Q1352.6875,130.7314 1354.0313,130.7314 Q1354.6563,130.7314 1355.25,130.4658 Q1355.8438,130.1845 1356.4688,129.6064 L1356.4688,132.3252 Z " fill="#000000"/><text fill="#D9B8FF" font-family="Helvetica" font-size="17" lengthAdjust="spacing" textLength="300" x="1372.5" y="132.5698">azure_network_private_link_service</text></g><!--class azure_network_security_group--><g id="elem_azure_network_security_group"><rect codeLine="41" fill="#3D176E" height="39.7891" id="azure_network_security_group" rx="2.5" ry="2.5" style="stroke:#000D19;stroke-width:0.5;" width="299" x="616" y="7"/><ellipse cx="631" cy="26.8945" fill="#ADD1B2" rx="11" ry="11" style="stroke:#181818;stroke-width:1.0;"/><path d="M633.9688,32.5352 Q633.3906,32.832 632.75,32.9727 Q632.1094,33.1289 631.4063,33.1289 Q628.9063,33.1289 627.5781,31.4883 Q626.2656,29.832 626.2656,26.707 Q626.2656,23.582 627.5781,21.9258 Q628.9063,20.2695 631.4063,20.2695 Q632.1094,20.2695 632.75,20.4258 Q633.4063,20.582 633.9688,20.8789 L633.9688,23.5977 Q633.3438,23.0195 632.75,22.7539 Q632.1563,22.4727 631.5313,22.4727 Q630.1875,22.4727 629.5,23.5508 Q628.8125,24.6133 628.8125,26.707 Q628.8125,28.8008 629.5,29.8789 Q630.1875,30.9414 631.5313,30.9414 Q632.1563,30.9414 632.75,30.6758 Q633.3438,30.3945 633.9688,29.8164 L633.9688,32.5352 Z " fill="#000000"/><text fill="#D9B8FF" font-family="Helvetica" font-size="17" lengthAdjust="spacing" textLength="257" x="650" y="32.7798">azure_network_security_group</text></g><!--class azure_network_virtual_network_tap--><g id="elem_azure_network_virtual_network_tap"><rect codeLine="44" fill="#3D176E" height="39.7891" id="azure_network_virtual_network_tap" rx="2.5" ry="2.5" style="stroke:#000D19;stroke-width:0.5;" width="346" x="1715.5" y="106.79"/><ellipse cx="1730.5" cy="126.6845" fill="#ADD1B2" rx="11" ry="11" style="stroke:#181818;stroke-width:1.0;"/><path d="M1733.4688,132.3252 Q1732.8906,132.622 1732.25,132.7627 Q1731.6094,132.9189 1730.9063,132.9189 Q1728.4063,132.9189 1727.0781,131.2783 Q1725.7656,129.622 1725.7656,126.497 Q1725.7656,123.372 1727.0781,121.7158 Q1728.4063,120.0595 1730.9063,120.0595 Q1731.6094,120.0595 1732.25,120.2158 Q1732.9063,120.372 1733.4688,120.6689 L1733.4688,123.3877 Q1732.8438,122.8095 1732.25,122.5439 Q1731.6563,122.2627 1731.0313,122.2627 Q1729.6875,122.2627 1729,123.3408 Q1728.3125,124.4033 1728.3125,126.497 Q1728.3125,128.5908 1729,129.6689 Q1729.6875,130.7314 1731.0313,130.7314 Q1731.6563,130.7314 1732.25,130.4658 Q1732.8438,130.1845 1733.4688,129.6064 L1733.4688,132.3252 Z " fill="#000000"/><text fill="#D9B8FF" font-family="Helvetica" font-size="17" lengthAdjust="spacing" textLength="304" x="1749.5" y="132.5698">azure_network_virtual_network_tap</text></g><!--link azure_compute_virtual_machine to azure_network_interface--><g id="link_azure_compute_virtual_machine_azure_network_interface"><path codeLine="47" d="M322.37,144.8 C328.15,145.41 333.88,146 339.5,146.58 C577.93,171.21 850.5476,197.7249 1008.0876,212.8949 " fill="none" id="azure_compute_virtual_machine-to-azure_network_interface" style="stroke:#1A83AF;stroke-width:2.0;"/><polygon fill="#1A83AF" points="1014.06,213.47,1005.4848,208.6258,1009.083,212.9908,1004.718,216.5889,1014.06,213.47" style="stroke:#1A83AF;stroke-width:2.0;"/></g><!--link azure_compute_virtual_machine_base to azure_network_interface--><g id="link_azure_compute_virtual_machine_base_azure_network_interface"><path codeLine="48" d="M657.6,147.07 C762.74,164.17 909.3078,188.0269 1014.4578,205.1269 " fill="none" id="azure_compute_virtual_machine_base-to-azure_network_interface" style="stroke:#1A83AF;stroke-width:2.0;"/><polygon fill="#1A83AF" points="1020.38,206.09,1012.1388,200.6972,1015.4448,205.2874,1010.8546,208.5935,1020.38,206.09" style="stroke:#1A83AF;stroke-width:2.0;"/></g><!--link azure_compute_virtual_machine_scale_set_instance to azure_network_interface--><g id="link_azure_compute_virtual_machine_scale_set_instance_azure_network_interface"><path codeLine="49" d="M1022.34,147.01 C1047.94,164.15 1080.1555,185.7201 1105.7355,202.8601 " fill="none" id="azure_compute_virtual_machine_scale_set_instance-to-azure_network_interface" style="stroke:#1A83AF;stroke-width:2.0;"/><polygon fill="#1A83AF" points="1110.72,206.2,1105.4698,197.8672,1106.5663,203.4168,1101.0167,204.5132,1110.72,206.2" style="stroke:#1A83AF;stroke-width:2.0;"/></g><!--link azure_network_interface to azure_network_dscp_configuration--><g id="link_azure_network_interface_azure_network_dscp_configuration"><path codeLine="50" d="M1139.5,246.8 C1139.5,263.94 1139.5,282.85 1139.5,299.99 " fill="none" id="azure_network_interface-to-azure_network_dscp_configuration" style="stroke:#1A83AF;stroke-width:2.0;"/><polygon fill="#1A83AF" points="1139.5,305.99,1143.5,296.99,1139.5,300.99,1135.5,296.99,1139.5,305.99" style="stroke:#1A83AF;stroke-width:2.0;"/></g><!--link azure_network_private_link_service to azure_network_interface--><g id="link_azure_network_private_link_service_azure_network_interface"><path codeLine="51" d="M1436.4,147.01 C1371.64,164.12 1283.3708,187.4468 1218.5608,204.5768 " fill="none" id="azure_network_private_link_service-to-azure_network_interface" style="stroke:#1A83AF;stroke-width:2.0;"/><polygon fill="#1A83AF" points="1212.76,206.11,1222.4833,207.6774,1217.594,204.8323,1220.4391,199.943,1212.76,206.11" style="stroke:#1A83AF;stroke-width:2.0;"/></g><!--link azure_network_security_group to azure_compute_virtual_machine--><g id="link_azure_network_security_group_azure_compute_virtual_machine"><path codeLine="52" d="M646.4,47.28 C541.26,64.38 394.6921,88.2364 289.5421,105.3464 " fill="none" id="azure_network_security_group-to-azure_compute_virtual_machine" style="stroke:#1A83AF;stroke-width:2.0;"/><polygon fill="#1A83AF" points="283.62,106.31,293.1456,108.8126,288.5551,105.507,291.8607,100.9165,283.62,106.31" style="stroke:#1A83AF;stroke-width:2.0;"/></g><!--link azure_network_security_group to azure_compute_virtual_machine_base--><g id="link_azure_network_security_group_azure_compute_virtual_machine_base"><path codeLine="53" d="M720.65,47.22 C680.86,64.36 628.5306,86.9065 588.7606,104.0365 " fill="none" id="azure_network_security_group-to-azure_compute_virtual_machine_base" style="stroke:#1A83AF;stroke-width:2.0;"/><polygon fill="#1A83AF" points="583.25,106.41,593.0982,106.5234,587.8421,104.432,589.9335,99.176,583.25,106.41" style="stroke:#1A83AF;stroke-width:2.0;"/></g><!--link azure_network_security_group to azure_compute_virtual_machine_scale_set_instance--><g id="link_azure_network_security_group_azure_compute_virtual_machine_scale_set_instance"><path codeLine="54" d="M810.55,47.22 C850.52,64.36 903.0856,86.9155 943.0356,104.0455 " fill="none" id="azure_network_security_group-to-azure_compute_virtual_machine_scale_set_instance" style="stroke:#1A83AF;stroke-width:2.0;"/><polygon fill="#1A83AF" points="948.55,106.41,941.8547,99.1869,943.9546,104.4396,938.702,106.5395,948.55,106.41" style="stroke:#1A83AF;stroke-width:2.0;"/></g><!--link azure_network_security_group to azure_network_interface--><g id="link_azure_network_security_group_azure_network_interface"><path codeLine="55" d="M915.48,31.69 C1041.62,38.43 1208.01,56.84 1250.5,106.79 C1281.39,143.11 1228.4123,180.373 1185.2423,203.433 " fill="none" id="azure_network_security_group-to-azure_network_interface" style="stroke:#1A83AF;stroke-width:2.0;"/><polygon fill="#1A83AF" points="1179.95,206.26,1189.7731,205.5477,1184.3602,203.9042,1186.0038,198.4914,1179.95,206.26" style="stroke:#1A83AF;stroke-width:2.0;"/></g><!--link azure_network_virtual_network_tap to azure_network_interface--><g id="link_azure_network_virtual_network_tap_azure_network_interface"><path codeLine="56" d="M1740.07,147.07 C1601.15,165.2 1401.8395,191.223 1270.8995,208.323 " fill="none" id="azure_network_virtual_network_tap-to-azure_network_interface" style="stroke:#1A83AF;stroke-width:2.0;"/><polygon fill="#1A83AF" points="1264.95,209.1,1274.3922,211.9009,1269.9079,208.4525,1273.3562,203.9682,1264.95,209.1" style="stroke:#1A83AF;stroke-width:2.0;"/></g><!--SRC=[hP9FQ-Cm4CNl_XI2d0j9GpV9fP06IlTIbktUbc8cqYWPR4jcD4v8b_tkTTgckFwNfEHYiERdfpVlUKq65MQvx5I6sH8vH24XbmD3fkRCVhlmgMSri1RiU58VtdidHu57o50zOBf18Grrui-QTE8m17LT6Ts1JbRi2sVUvON1XNA4JYhK8eKGvY9CoqAmOiRCbbDhwsHTT30seyaFR62U3V87CXmEpMXMHuvUrRlt9_54BwX6rT0UlM33PkEADwhNvPwec6miUfXtUlm5nf1RgPlAsUztJ-oGlvm_hS7uxPwsa8RgDK6GqSiknqLZAvnDZPsqmZ-xu4ZlerFmKZ36scTvMNky8PO2qZW3lIQ7wbyK_Jy5Z9SGpg23XhHyeiJaWe3JBTywbAtd93P1vwMGixGg68IywsR9bNjRw9FBcJPGMah99QK3tb0V7L0NJBABzmdctTnXmSExm0VS7-_Lty5eFXtFxv-lRhjMYKu8_W8wBPMSeTeieEVZPgFH2HrzmqsjlHQ5ZZGkfVFMpiN4cXMTBNqiiRR_-2IPLm00]--></g></svg>

<svg xmlns="http://www.w3.org/2000/svg" width="2068" height="352" viewBox="0 0 2068 352"><rect width="315" height="39.789" x="7" y="106.79" fill="#3D176E" rx="2.5" ry="2.5" style="stroke:#000d19;stroke-width:.5"/><circle cx="22" cy="126.684" r="11" fill="#ADD1B2" style="stroke:#181818;stroke-width:1"/><path d="M24.969 132.325q-.578.297-1.219.438-.64.156-1.344.156-2.5 0-3.828-1.64-1.312-1.657-1.312-4.782t1.312-4.781q1.328-1.656 3.828-1.656.703 0 1.344.156.656.156 1.219.453v2.719q-.625-.579-1.219-.844-.594-.281-1.219-.281-1.343 0-2.031 1.078-.687 1.062-.687 3.156t.687 3.172q.688 1.062 2.031 1.062.625 0 1.219-.265.594-.281 1.219-.86z"/><text x="41" y="132.57" fill="#D9B8FF" font-family="Helvetica" font-size="17" textLength="273">azure_compute_virtual_machine</text><rect width="362" height="39.789" x="357.5" y="106.79" fill="#3D176E" rx="2.5" ry="2.5" style="stroke:#000d19;stroke-width:.5"/><circle cx="372.5" cy="126.684" r="11" fill="#ADD1B2" style="stroke:#181818;stroke-width:1"/><path d="M375.469 132.325q-.578.297-1.219.438-.64.156-1.344.156-2.5 0-3.828-1.64-1.312-1.657-1.312-4.782t1.312-4.781q1.328-1.656 3.828-1.656.703 0 1.344.156.656.156 1.219.453v2.719q-.625-.579-1.219-.844-.594-.281-1.219-.281-1.344 0-2.031 1.078-.687 1.062-.687 3.156t.687 3.172q.688 1.062 2.031 1.062.625 0 1.219-.265.594-.281 1.219-.86z"/><text x="391.5" y="132.57" fill="#D9B8FF" font-family="Helvetica" font-size="17" textLength="320">azure_compute_virtual_machine_base</text><rect width="478" height="39.789" x="754.5" y="106.79" fill="#3D176E" rx="2.5" ry="2.5" style="stroke:#000d19;stroke-width:.5"/><circle cx="769.5" cy="126.684" r="11" fill="#ADD1B2" style="stroke:#181818;stroke-width:1"/><path d="M772.469 132.325q-.578.297-1.219.438-.64.156-1.344.156-2.5 0-3.828-1.64-1.312-1.657-1.312-4.782t1.312-4.781q1.328-1.656 3.828-1.656.703 0 1.344.156.656.156 1.219.453v2.719q-.625-.579-1.219-.844-.594-.281-1.219-.281-1.343 0-2.031 1.078-.687 1.062-.687 3.156t.687 3.172q.688 1.062 2.031 1.062.625 0 1.219-.265.594-.281 1.219-.86z"/><text x="788.5" y="132.57" fill="#D9B8FF" font-family="Helvetica" font-size="17" textLength="436">azure_compute_virtual_machine_scale_set_instance</text><rect width="332" height="39.789" x="973.5" y="306.37" fill="#3D176E" rx="2.5" ry="2.5" style="stroke:#000d19;stroke-width:.5"/><circle cx="988.5" cy="326.264" r="11" fill="#ADD1B2" style="stroke:#181818;stroke-width:1"/><path d="M991.469 331.905q-.578.297-1.219.438-.64.156-1.344.156-2.5 0-3.828-1.64-1.312-1.657-1.312-4.782t1.312-4.781q1.328-1.656 3.828-1.656.703 0 1.344.156.656.156 1.219.453v2.719q-.625-.579-1.219-.844-.594-.281-1.219-.281-1.343 0-2.031 1.078-.687 1.062-.687 3.156t.687 3.172q.688 1.062 2.031 1.062.625 0 1.219-.265.594-.281 1.219-.86z"/><text x="1007.5" y="332.15" fill="#D9B8FF" font-family="Helvetica" font-size="17" textLength="290">azure_network_dscp_configuration</text><rect width="250" height="39.789" x="1014.5" y="206.58" fill="#3D176E" rx="2.5" ry="2.5" style="stroke:#000d19;stroke-width:.5"/><circle cx="1029.5" cy="226.475" r="11" fill="#ADD1B2" style="stroke:#181818;stroke-width:1"/><path d="M1032.469 232.115q-.578.297-1.219.438-.64.156-1.344.156-2.5 0-3.828-1.64-1.312-1.657-1.312-4.782t1.312-4.781q1.328-1.656 3.828-1.656.703 0 1.344.156.656.156 1.219.453v2.719q-.625-.578-1.219-.844-.594-.281-1.219-.281-1.343 0-2.031 1.078-.687 1.062-.687 3.156t.687 3.172q.688 1.062 2.031 1.062.625 0 1.219-.265.594-.281 1.219-.86z"/><text x="1048.5" y="232.36" fill="#D9B8FF" font-family="Helvetica" font-size="17" textLength="208">azure_network_interface</text><rect width="342" height="39.789" x="1338.5" y="106.79" fill="#3D176E" rx="2.5" ry="2.5" style="stroke:#000d19;stroke-width:.5"/><circle cx="1353.5" cy="126.684" r="11" fill="#ADD1B2" style="stroke:#181818;stroke-width:1"/><path d="M1356.469 132.325q-.578.297-1.219.438-.64.156-1.344.156-2.5 0-3.828-1.64-1.312-1.657-1.312-4.782t1.312-4.781q1.328-1.656 3.828-1.656.703 0 1.344.156.656.156 1.219.453v2.719q-.625-.579-1.219-.844-.594-.281-1.219-.281-1.343 0-2.031 1.078-.687 1.062-.687 3.156t.687 3.172q.688 1.062 2.031 1.062.625 0 1.219-.265.594-.281 1.219-.86z"/><text x="1372.5" y="132.57" fill="#D9B8FF" font-family="Helvetica" font-size="17" textLength="300">azure_network_private_link_service</text><rect width="299" height="39.789" x="616" y="7" fill="#3D176E" rx="2.5" ry="2.5" style="stroke:#000d19;stroke-width:.5"/><circle cx="631" cy="26.895" r="11" fill="#ADD1B2" style="stroke:#181818;stroke-width:1"/><path d="M633.969 32.535q-.578.297-1.219.438-.64.156-1.344.156-2.5 0-3.828-1.64-1.312-1.657-1.312-4.782t1.312-4.781q1.328-1.656 3.828-1.656.703 0 1.344.156.656.156 1.219.453v2.719q-.625-.578-1.219-.844-.594-.281-1.219-.281-1.343 0-2.031 1.078-.687 1.062-.687 3.156t.687 3.172q.688 1.062 2.031 1.062.625 0 1.219-.265.594-.281 1.219-.86z"/><text x="650" y="32.78" fill="#D9B8FF" font-family="Helvetica" font-size="17" textLength="257">azure_network_security_group</text><rect width="346" height="39.789" x="1715.5" y="106.79" fill="#3D176E" rx="2.5" ry="2.5" style="stroke:#000d19;stroke-width:.5"/><circle cx="1730.5" cy="126.684" r="11" fill="#ADD1B2" style="stroke:#181818;stroke-width:1"/><path d="M1733.469 132.325q-.578.297-1.219.438-.64.156-1.344.156-2.5 0-3.828-1.64-1.312-1.657-1.312-4.782t1.312-4.781q1.328-1.656 3.828-1.656.703 0 1.344.156.656.156 1.219.453v2.719q-.625-.579-1.219-.844-.594-.281-1.219-.281-1.343 0-2.031 1.078-.687 1.062-.687 3.156t.687 3.172q.688 1.062 2.031 1.062.625 0 1.219-.265.594-.281 1.219-.86z"/><text x="1749.5" y="132.57" fill="#D9B8FF" font-family="Helvetica" font-size="17" textLength="304">azure_network_virtual_network_tap</text><path fill="none" d="M322.37 144.8c5.78.61 11.51 1.2 17.13 1.78 238.43 24.63 511.048 51.145 668.588 66.315" style="stroke:#1a83af;stroke-width:2"/><path fill="#1A83AF" d="m1014.06 213.47-8.575-4.844 3.598 4.365-4.365 3.598z" style="stroke:#1a83af;stroke-width:2"/><path fill="none" d="M657.6 147.07c105.14 17.1 251.708 40.957 356.858 58.057" style="stroke:#1a83af;stroke-width:2"/><path fill="#1A83AF" d="m1020.38 206.09-8.241-5.393 3.306 4.59-4.59 3.307z" style="stroke:#1a83af;stroke-width:2"/><path fill="none" d="M1022.34 147.01c25.6 17.14 57.816 38.71 83.395 55.85" style="stroke:#1a83af;stroke-width:2"/><path fill="#1A83AF" d="m1110.72 206.2-5.25-8.333 1.096 5.55-5.55 1.096z" style="stroke:#1a83af;stroke-width:2"/><path fill="none" d="M1139.5 246.8v53.19" style="stroke:#1a83af;stroke-width:2"/><path fill="#1A83AF" d="m1139.5 305.99 4-9-4 4-4-4z" style="stroke:#1a83af;stroke-width:2"/><path fill="none" d="M1436.4 147.01c-64.76 17.11-153.03 40.437-217.84 57.567" style="stroke:#1a83af;stroke-width:2"/><path fill="#1A83AF" d="m1212.76 206.11 9.723 1.567-4.889-2.845 2.845-4.889z" style="stroke:#1a83af;stroke-width:2"/><path fill="none" d="M646.4 47.28c-105.14 17.1-251.708 40.956-356.858 58.066" style="stroke:#1a83af;stroke-width:2"/><path fill="#1A83AF" d="m283.62 106.31 9.526 2.503-4.59-3.306 3.305-4.59z" style="stroke:#1a83af;stroke-width:2"/><path fill="none" d="M720.65 47.22c-39.79 17.14-92.12 39.686-131.89 56.817" style="stroke:#1a83af;stroke-width:2"/><path fill="#1A83AF" d="m583.25 106.41 9.848.113-5.256-2.091 2.091-5.256z" style="stroke:#1a83af;stroke-width:2"/><path fill="none" d="M810.55 47.22c39.97 17.14 92.536 39.695 132.486 56.826" style="stroke:#1a83af;stroke-width:2"/><path fill="#1A83AF" d="m948.55 106.41-6.695-7.223 2.1 5.253-5.253 2.1z" style="stroke:#1a83af;stroke-width:2"/><path fill="none" d="M915.48 31.69c126.14 6.74 292.53 25.15 335.02 75.1 30.89 36.32-22.088 73.583-65.258 96.643" style="stroke:#1a83af;stroke-width:2"/><path fill="#1A83AF" d="m1179.95 206.26 9.823-.712-5.413-1.644 1.644-5.413z" style="stroke:#1a83af;stroke-width:2"/><path fill="none" d="M1740.07 147.07c-138.92 18.13-338.23 44.153-469.17 61.253" style="stroke:#1a83af;stroke-width:2"/><path fill="#1A83AF" d="m1264.95 209.1 9.442 2.8-4.484-3.448 3.448-4.484z" style="stroke:#1a83af;stroke-width:2"/></svg>
